img/adobe/indesign.svg

<svg xmlns="http://www.w3.org/2000/svg" viewBox="0 0 54 54"><title>indesign</title><g data-name="Layer 2"><g data-name="Adobe icons"><path d="M50.17 54H3.83A3.84 3.84 0 0 1 0 50.16V3.83A3.84 3.84 0 0 1 3.83 0h46.34A3.84 3.84 0 0 1 54 3.83v46.33A3.84 3.84 0 0 1 50.17 54zM3.83 2A1.83 1.83 0 0 0 2 3.83v46.33A1.83 1.83 0 0 0 3.83 52h46.34A1.83 1.83 0 0 0 52 50.16V3.83A1.83 1.83 0 0 0 50.17 2z"/><path d="M20.4 17.41v20.22h-4.59V17.41zM38.34 16.33v16.92c0 1.65.06 3.39.12 4.38h-4.05l-.21-2.16h-.06A5.12 5.12 0 0 1 29.55 38c-3.48 0-6.27-3-6.27-7.53 0-4.95 3.06-7.8 6.57-7.8a4.47 4.47 0 0 1 3.87 1.65h.06v-8zm-4.56 12.84a7.36 7.36 0 0 0-.06-.81 2.74 2.74 0 0 0-2.67-2.25c-2.05 0-3.15 1.89-3.15 4.17 0 2.49 1.23 4 3.12 4a2.67 2.67 0 0 0 2.64-2.19 3.88 3.88 0 0 0 .12-1.05z"/></g></g></svg>

<svg xmlns="http://www.w3.org/2000/svg" viewBox="0 0 54 54"><title>indesign</title><g id="Layer_2" data-name="Layer 2"><g id="Adobe_icons" data-name="Adobe icons"><path d="M50.17,54H3.83A3.84,3.84,0,0,1,0,50.16V3.83A3.84,3.84,0,0,1,3.83,0H50.17A3.84,3.84,0,0,1,54,3.83V50.16A3.84,3.84,0,0,1,50.17,54ZM3.83,2A1.83,1.83,0,0,0,2,3.83V50.16A1.83,1.83,0,0,0,3.83,52H50.17A1.83,1.83,0,0,0,52,50.16V3.83A1.83,1.83,0,0,0,50.17,2Z"/><path d="M20.4,17.41V37.63H15.81V17.41Z"/><path d="M38.34,16.33V33.25c0,1.65.06,3.39.12,4.38H34.41l-.21-2.16h-.06A5.12,5.12,0,0,1,29.55,38c-3.48,0-6.27-3-6.27-7.53,0-4.95,3.06-7.8,6.57-7.8a4.47,4.47,0,0,1,3.87,1.65h.06v-8ZM33.78,29.17a7.36,7.36,0,0,0-.06-.81,2.74,2.74,0,0,0-2.67-2.25C29,26.11,27.9,28,27.9,30.28c0,2.49,1.23,4,3.12,4a2.67,2.67,0,0,0,2.64-2.19,3.88,3.88,0,0,0,.12-1.05Z"/></g></g></svg>
